X: 766
T: Fincanı Taştan Oyarlar
C: (Anonim)
O: Turkey
F: http://compmusic.upf.edu/node/140
N: nisaburek--turku--aksak--fincani_tastan--
N: makam= nisaburek
N: form= turku
N: usul= aksak = 9/8
M: 9/8
L: 1/16
K: C ^9/8f ^3/4c ^3/4g 
Q: 1/4=312
%%MIDI tuningsystem comma53
c2A2 B2G2 A2B2 c2d2 e2 | c2 A2B2 G2A4f2 e2d2  | \
w:  ARANAĞME  |   | 
c2A2 B2G2 A2B2 c2d2 e2 | 
w:   | 
c2 A2B2 G2A4f2 e2d2  | c2A2 B2G2 A2B2 c2d2 e2 | \
w:   |  ARANAĞME  | 
c2 A2B2 G2A4f2 e2d2  | 
w:   | 
c2A2 B2G2 A2B2 c2d2 e2 | c2 A2B2 G2A8z2  | \
w:   |   | 
e8 f2g2 e6 | e4a4=g2 f2e4d2  | 
w:  Fin ca *  nı   |  taş tan  o *  yar lar   | 
c2B2 c2d2 c2B2 A4 z2 | e8f2 g2e6  | e4 a4 =g2f2 e4 d2 | \
w:  be yim_ a man_ a *  man    |  Fin ca *  nı   |  taş tan  o *  yar lar   | 
c2 B2c2 d2c2 B2A4z2  | 
w:  be yim_ a man_ a *  man    | 
d8 B2d2 c4 B2 | A4c4B2 A2G2 A2B2  | A2B2 c2d2 e2d2 e4 z2 | \
w:  İ çi *  ne   |  bâ de  ko *  yar  |  lar    | 
d8B2 d2c4B2  | 
w:  İ çi *  ne   | 
A4 c4 B2A2 G2A2 B2 | A8e2 d2e4z2  | e8 f2g2 e6 | \
w:  bâ de  ko *  yar  |  lar  SAZ  |  Gü ze *  li   | 
e4a4=g2 f2e4d2  | 
w:  can dan  se *  ver ler   | 
c2B2 c2d2 c2B2 A4 z2 | e8f2 g2e6  | e4 a4 =g2f2 e4 d2 | \
w:  be yim_ a man  a *  man    |  Gü ze *  li   |  can dan  se *  ver ler   | 
c2 B2c2 d2c2 B2A4z2  | 
w:  be yim_ a man  a *  man    | 
d8 B2d2 c6 | A4c4B2 A2G2 A2B2  | A2B2 c2d2 e2d2 e4 z2 | \
w:  Al  bâ *  de   |  dol dur  şi *  şe  |  yi    | 
d8B2 d2c6  | 
w:  Al  bâ *  de   | 
A4 c4 B2A2 G2A2 B2 | A8z4f2 e2d2  | c2A2 B2G2 A2B2 c2d2 e2 | 
w:  dol dur  şi *  şe  |  yi   SAZ  |  ARANAĞME  | 
c2 A2B2 G2A4f2 e2d2  | c2A2 B2G2 A2B2 c2d2 e2 | \
w:   |   | 
c2 A2B2 G2A4f2 e2d2  | 
w:   | 
c2A2 B2G2 A2B2 c2d2 e2 | c2 A2B2 G2A4f2 e2d2  | \
w:  ARANAĞME  |   | 
c2A2 B2G2 A2B2 c2d2 e2 | 
w:   | 
c2 A2B2 G2A8z2  | e8 f2g2 e6 | e4a4=g2 f2e4d2  | \
w:   |  Fin ca *  nı   |  taş tan  o *  yar lar   | 
c2B2 c2d2 c2B2 A4 z2 | 
w:  be yim_ a man_ a *  man    | 
e8f2 g2e6  | e4 a4 =g2f2 e4 d2 | c2 B2c2 d2c2 B2A4z2  | \
w:  Fin ca *  nı   |  taş tan  o *  yar lar   |  be yim_ a man_ a *  man    | 
d8 B2d2 c4 B2 | 
w:  İ çi *  ne   | 
A4c4B2 A2G2 A2B2  | A2B2 c2d2 e2d2 e4 z2 | \
w:  bâ de  ko *  yar  |  lar    | 
d8B2 d2c4B2  | A4 c4 B2A2 G2A2 B2 | 
w:  İ çi *  ne   |  bâ de  ko *  yar  | 
A8e2 d2e4z2  | e8 f2g2 e6 | e4a4=g2 f2e4d2  | \
w:  lar  SAZ  |  Gü ze *  li   |  can dan  se *  ver ler   | 
c2B2 c2d2 c2B2 A4 z2 | 
w:  be yim_ a man  a *  man    | 
e8f2 g2e6  | e4 a4 =g2f2 e4 d2 | c2 B2c2 d2c2 B2A4z2  | \
w:  Gü ze *  li   |  can dan  se *  ver ler   |  be yim_ a man  a *  man    | 
d8 B2d2 c6 | 
w:  Al  bâ *  de   | 
A4c4B2 A2G2 A2B2  | A2B2 c2d2 e2d2 e4 z2 | \
w:  dol dur  şi *  şe  |  yi    | 
d8B2 d2c6  | A4 c4 B2A2 G2A2 B2 | 
w:  Al  bâ *  de   |  dol dur  şi *  şe  | 
A8|
w:  yi    | 


